Adwaita++-Light/panel/16/youtube-indicator-light-sync4.svg

<svg height="16" width="16" xmlns="http://www.w3.org/2000/svg">
  <g fill="#444">
    <path d="m8.1074219 2c-1.8698.0004-4.6282781.1237438-5.4550781.1523438-.8988002.0859999-1.2304032.1340312-1.72070318.5820312-.75482.7106-.93164062 2.1081937-.93164062 4.2460938v2.0332031c.00000005 2.4374001.30353375 3.6769061.80859375 4.1289061.57708005.529.95782375.569813 1.33984375.632813.1489.023 1.207325.224609 5.890625.224609.5647654 0 .9656111-.020086 1.4863281-.029297a4 4 0 0 1 -.5253906-1.970703 4 4 0 0 1 4-4 4 4 0 0 1 2.992188 1.3535156c.001058-.114091.007812-.2095958.007812-.328125v-2.3671875c0-1.2653-.064734-3.0508812-.802734-3.8007812-.56-.5053-.763922-.6463844-1.919922-.7089844-.326-.0154-3.177222-.1487775-5.1699221-.1484375zm-1.1074219 3 4 3-4 3z"/>
    <path d="m15.598076 10.5c-.828375-1.4347881-2.669134-1.923076-4.098076-1.098076-1.428941.824999-1.9264526 2.663288-1.098076 4.098076.828374 1.434787 2.669134 1.923077 4.098076 1.098076 1.428941-.824999 1.926452-2.663288 1.098076-4.098076zm-.866025.5a2 2 0 0 1 -.732051 2.732051l-.5-.866025a1 1 0 0 0 .366026-1.366026zm-2.732051-.732051.5.866025a1 1 0 0 0 -.366026 1.366026l-.866025.5a2 2 0 0 1 .732051-2.732051z"/>
  </g>
</svg>

<svg xmlns="http://www.w3.org/2000/svg" width="16" height="16" version="1.1">
 <defs>
  <style id="current-color-scheme" type="text/css">
   .ColorScheme-Text { color:#444444; } .ColorScheme-Highlight { color:#4285f4; }
  </style>
 </defs>
 <path style="fill:currentColor" class="ColorScheme-Text" d="M 8.1074219 2 C 6.2376219 2.0004 3.4791438 2.1237438 2.6523438 2.1523438 C 1.7535436 2.2383437 1.4219406 2.286375 0.93164062 2.734375 C 0.17682062 3.444975 1.4802974e-16 4.8425687 0 6.9804688 L 0 9.0136719 C 5.33e-08 11.451072 0.30353375 12.690578 0.80859375 13.142578 C 1.3856738 13.671578 1.7664175 13.712391 2.1484375 13.775391 C 2.2973375 13.798391 3.3557625 14 8.0390625 14 C 8.6038279 14 9.0046736 13.979914 9.5253906 13.970703 A 4 4 0 0 1 9 12 A 4 4 0 0 1 13 8 A 4 4 0 0 1 15.992188 9.3535156 C 15.993246 9.2394246 16 9.1439198 16 9.0253906 L 16 6.6582031 C 16 5.3929031 15.935266 3.6073219 15.197266 2.8574219 C 14.637266 2.3521219 14.433344 2.2110375 13.277344 2.1484375 C 12.951344 2.1330375 10.100122 1.99966 8.1074219 2 z M 7 5 L 11 8 L 7 11 L 7 5 z"/>
 <path style="fill:currentColor" class="ColorScheme-Text" d="M 15.598076,10.5 C 14.769701,9.0652119 12.928942,8.576924 11.5,9.401924 10.071059,10.226923 9.5735474,12.065212 10.401924,13.5 11.230298,14.934787 13.071058,15.423077 14.5,14.598076 15.928941,13.773077 16.426452,11.934788 15.598076,10.5 Z M 14.732051,11 A 2,2 0 0 1 14,13.732051 L 13.5,12.866026 A 1,1 0 0 0 13.866026,11.5 L 14.732051,11 Z M 12,10.267949 12.5,11.133974 A 1,1 0 0 0 12.133974,12.5 L 11.267949,13 A 2,2 0 0 1 12,10.267949 Z"/>
</svg>
